X: 6
T: Ridée Six Temps
R: three-two
M: 3/2
L: 1/8
K: Bmin
|: BffB ffef gfed | cBcd efed cedc :|
B2 fB cd | B2 gB cd | B2 AB cd | ed cd dc |
B2 fB cd | B2 gB cd | B2 AB cd | ed cd dB ||
|: BffB f2 ef gfed | cBcd ef e2 cedc :|
B2 fB cd | B2 gB cd | B2 AB cd | ed ce dc |
cB fB cd | B2 gB cd | B2 AB cd | ed ce dc ||
Bz B2 cd | Bz B2 cd | Bz B2 cd | ed ce dc :| ~ festourobin
B2 fB cd | B2 gB cd | B2 AB cd | ed cd dc | ~ Jeffrey
B2 fB cd | B2 gB cd | B2 AB cd | ed ce dc | ~ Hetty



|: BffB f2 ef gfed | cBcd ef e2 cedc :|
B2 fB cd | B2 gB cd | B2 AB cd | ed ce dc |
cB fB cd | B2 gB cd | B2 AB cd | ed ce dc ||


|: BffB f2ef gfed | cBcd efe2 cedc |
B2fB f2ef gfed | c2cd efe2 cedc |
B2 fB cd | B2 gB cd | B2 AB cd | ed ce dc |
cB fB cd | B2 gB cd | B2 AB cd | ed ce dc ||



